X: 11053
T: The KINDNESS  of MARIANNE
C: Bob McQuillen 18 Oct 94
B: Bob's Note Book 11 #53
%R: reel
Z: 2020 John Chambers <jc:trillian.mit.edu>
M: C
L: 1/8
K: G
GA \
| B2DE D2GA | Bdge dBGA | B2DE D2GB | AGBG EDed |
| B2DE DEGA | Bdeg dBGA | BdBG EDge | dBAB G2  :|
|: Bd \
| g2ge dBdg | egdB edBA | G2BG ABGA | BGAG EDGE |
| D2GB AGBd | edBd g2ed | Bded egdB | AGAB G2  :|
%%begintext align
%% Marianne
%% Jewell invited me to spend a week with her in
%% Mabou, Cape Breton Island, N.S. She put me up in
%% her spare bedroom, cooked for me, and took me all
%% over the island playing music. Here's no way I
%% can ever repay your kindness, Mariann. _Thank_
%% _you_ for a wonderful time! (I hope this tune sounds
%% OK on your fiddle!)
%%endtext

%%sep 1 1 500

%%sep 1 1 500

